public/svgs/duotone/circle-camera.svg

<svg xmlns="http://www.w3.org/2000/svg" viewBox="0 0 512 512"><!-- Font Awesome Pro 6.0.0-alpha2 by @fontawesome - https://fontawesome.com License - https://fontawesome.com/license (Commercial License) --><defs><style>.fa-secondary{opacity:.4}</style></defs><path d="M256 16C123.451 16 16 123.451 16 256S123.451 496 256 496S496 388.549 496 256S388.549 16 256 16ZM384 320C384 337.672 369.674 352 352 352H160C142.326 352 128 337.672 128 320V192C128 174.326 142.326 160 160 160H196L202.125 143.562C205.625 134.188 214.625 128 224.625 128H287.375C297.375 128 306.312 134.188 309.812 143.562L316 160H352C369.674 160 384 174.326 384 192V320Z" class="fa-secondary"/><path d="M352 160H316L309.812 143.562C306.312 134.188 297.375 128 287.375 128H224.625C214.625 128 205.625 134.188 202.125 143.562L196 160H160C142.326 160 128 174.326 128 192V320C128 337.672 142.326 352 160 352H352C369.674 352 384 337.672 384 320V192C384 174.326 369.674 160 352 160ZM256 304C229.5 304 208 282.5 208 256S229.5 208 256 208S304 229.5 304 256S282.5 304 256 304Z" class="fa-primary"/></svg>

<svg xmlns="http://www.w3.org/2000/svg" viewBox="0 0 512 512"><!--! Font Awesome Pro 6.5.1 by @fontawesome - https://fontawesome.com License - https://fontawesome.com/license (Commercial License) Copyright 2023 Fonticons, Inc. --><defs><style>.fa-secondary{opacity:.4}</style></defs><path class="fa-secondary" d="M256 512A256 256 0 1 0 256 0a256 256 0 1 0 0 512zM202.2 143.6c3.5-9.4 12.5-15.6 22.5-15.6h62.7c10 0 19 6.2 22.5 15.6L316 160h36c17.7 0 32 14.3 32 32V320c0 17.7-14.3 32-32 32H160c-17.7 0-32-14.3-32-32V192c0-17.7 14.3-32 32-32h36l6.2-16.4z"/><path class="fa-primary" d="M202.2 143.6L196 160H160c-17.7 0-32 14.3-32 32V320c0 17.7 14.3 32 32 32H352c17.7 0 32-14.3 32-32V192c0-17.7-14.3-32-32-32H316l-6.2-16.4c-3.5-9.4-12.5-15.6-22.5-15.6H224.6c-10 0-19 6.2-22.5 15.6zM256 208a48 48 0 1 1 0 96 48 48 0 1 1 0-96z"/></svg>
